flaticon/seo-and-analytics/analytics-16.svg

<svg xmlns="http://www.w3.org/2000/svg" width="32" height="32" viewBox="0 0 24 24">
    <path d="M 22.960938 0 L 1.039062 0 C 0.480469 0 0 0.480469 0 1.039062 L 0 22.960938 C 0 23.519531 0.480469 24 1.039062 24 L 22.960938 24 C 23.519531 24 24 23.519531 24 22.960938 L 24 1.039062 C 24 0.480469 23.519531 0 22.960938 0 Z M 23.199219 22.960938 C 23.199219 23.078125 23.078125 23.199219 22.960938 23.199219 L 1.039062 23.199219 C 0.921875 23.199219 0.800781 23.078125 0.800781 22.960938 L 0.800781 17.601562 L 23.199219 17.601562 Z M 23.199219 16.800781 L 0.800781 16.800781 L 0.800781 7.199219 L 23.199219 7.199219 Z M 0.800781 6.398438 L 0.800781 1.039062 C 0.800781 0.921875 0.921875 0.800781 1.039062 0.800781 L 22.960938 0.800781 C 23.078125 0.800781 23.199219 0.921875 23.199219 1.039062 L 23.199219 6.398438 Z M 0.800781 6.398438"/>
    <path d="M16.800781 10.398438C16.558594 10.398438 16.398438 10.558594 16.398438 10.800781 16.398438 11.039062 16.558594 11.199219 16.800781 11.199219 17.039062 11.199219 17.199219 11.039062 17.199219 10.800781 17.199219 10.558594 17.039062 10.398438 16.800781 10.398438zM18.398438 11.199219C18.640625 11.199219 18.800781 11.039062 18.800781 10.800781 18.800781 10.558594 18.640625 10.398438 18.398438 10.398438 18.160156 10.398438 18 10.558594 18 10.800781 18 11.039062 18.160156 11.199219 18.398438 11.199219zM13.601562 11.199219C13.839844 11.199219 14 11.039062 14 10.800781 14 10.558594 13.839844 10.398438 13.601562 10.398438 13.359375 10.398438 13.199219 10.558594 13.199219 10.800781 13.199219 11.039062 13.359375 11.199219 13.601562 11.199219zM15.199219 11.199219C15.441406 11.199219 15.601562 11.039062 15.601562 10.800781 15.601562 10.558594 15.441406 10.398438 15.199219 10.398438 14.960938 10.398438 14.800781 10.558594 14.800781 10.800781 14.800781 11.039062 14.960938 11.199219 15.199219 11.199219zM10.398438 11.199219C10.640625 11.199219 10.800781 11.039062 10.800781 10.800781 10.800781 10.558594 10.640625 10.398438 10.398438 10.398438 10.160156 10.398438 10 10.558594 10 10.800781 10 11.039062 10.160156 11.199219 10.398438 11.199219zM12 11.199219C12.238281 11.199219 12.398438 11.039062 12.398438 10.800781 12.398438 10.558594 12.238281 10.398438 12 10.398438 11.761719 10.398438 11.601562 10.558594 11.601562 10.800781 11.601562 11.039062 11.761719 11.199219 12 11.199219zM8.398438 10.800781C8.398438 11.039062 8.558594 11.199219 8.800781 11.199219 9.039062 11.199219 9.199219 11.039062 9.199219 10.800781 9.199219 10.558594 9.039062 10.398438 8.800781 10.398438 8.558594 10.398438 8.398438 10.558594 8.398438 10.800781zM20 11.199219C20.238281 11.199219 20.398438 11.039062 20.398438 10.800781 20.398438 10.558594 20.238281 10.398438 20 10.398438 19.761719 10.398438 19.601562 10.558594 19.601562 10.800781 19.601562 11.039062 19.761719 11.199219 20 11.199219zM21.601562 10.398438C21.359375 10.398438 21.199219 10.558594 21.199219 10.800781 21.199219 11.039062 21.359375 11.199219 21.601562 11.199219 21.839844 11.199219 22 11.039062 22 10.800781 22 10.558594 21.839844 10.398438 21.601562 10.398438zM17.601562 9.199219C17.359375 9.199219 17.199219 9.359375 17.199219 9.601562 17.199219 9.839844 17.359375 10 17.601562 10 17.839844 10 18 9.839844 18 9.601562 18 9.359375 17.839844 9.199219 17.601562 9.199219zM19.199219 9.199219C18.960938 9.199219 18.800781 9.359375 18.800781 9.601562 18.800781 9.839844 18.960938 10 19.199219 10 19.441406 10 19.601562 9.839844 19.601562 9.601562 19.601562 9.359375 19.441406 9.199219 19.199219 9.199219zM14.398438 9.199219C14.160156 9.199219 14 9.359375 14 9.601562 14 9.839844 14.160156 10 14.398438 10 14.640625 10 14.800781 9.839844 14.800781 9.601562 14.800781 9.359375 14.640625 9.199219 14.398438 9.199219zM16 9.199219C15.761719 9.199219 15.601562 9.359375 15.601562 9.601562 15.601562 9.839844 15.761719 10 16 10 16.238281 10 16.398438 9.839844 16.398438 9.601562 16.398438 9.359375 16.238281 9.199219 16 9.199219zM11.199219 9.199219C10.960938 9.199219 10.800781 9.359375 10.800781 9.601562 10.800781 9.839844 10.960938 10 11.199219 10 11.441406 10 11.601562 9.839844 11.601562 9.601562 11.601562 9.359375 11.441406 9.199219 11.199219 9.199219zM12.800781 9.199219C12.558594 9.199219 12.398438 9.359375 12.398438 9.601562 12.398438 9.839844 12.558594 10 12.800781 10 13.039062 10 13.199219 9.839844 13.199219 9.601562 13.199219 9.359375 13.039062 9.199219 12.800781 9.199219zM9.601562 9.199219C9.359375 9.199219 9.199219 9.359375 9.199219 9.601562 9.199219 9.839844 9.359375 10 9.601562 10 9.839844 10 10 9.839844 10 9.601562 10 9.359375 9.839844 9.199219 9.601562 9.199219zM21.199219 9.601562C21.199219 9.359375 21.039062 9.199219 20.800781 9.199219 20.558594 9.199219 20.398438 9.359375 20.398438 9.601562 20.398438 9.839844 20.558594 10 20.800781 10 21.039062 10 21.199219 9.839844 21.199219 9.601562zM8.398438 8.800781L22 8.800781C22.238281 8.800781 22.398438 8.640625 22.398438 8.398438 22.398438 8.160156 22.238281 8 22 8L8.398438 8C8.160156 8 8 8.160156 8 8.398438 8 8.640625 8.160156 8.800781 8.398438 8.800781zM2 11.199219L6.800781 11.199219C7.039062 11.199219 7.199219 11.039062 7.199219 10.800781L7.199219 8.398438C7.199219 8.160156 7.039062 8 6.800781 8L2 8C1.761719 8 1.601562 8.160156 1.601562 8.398438L1.601562 10.800781C1.601562 11.039062 1.761719 11.199219 2 11.199219zM2.398438 8.800781L6.398438 8.800781 6.398438 10.398438 2.398438 10.398438zM5.199219 12L2.800781 12C2.359375 12 2 12.359375 2 12.800781L2 15.199219C2 15.640625 2.359375 16 2.800781 16L5.199219 16C5.640625 16 6 15.640625 6 15.199219L6 12.800781C6 12.359375 5.640625 12 5.199219 12zM5.199219 15.199219L2.800781 15.199219 2.800781 12.800781 5.199219 12.800781zM7.199219 15.199219C7.199219 15.640625 7.558594 16 8 16L16 16C16.441406 16 16.800781 15.640625 16.800781 15.199219L16.800781 12.800781C16.800781 12.359375 16.441406 12 16 12L8 12C7.558594 12 7.199219 12.359375 7.199219 12.800781zM8 12.800781L16 12.800781 16 15.199219 8 15.199219zM21.199219 12L18.800781 12C18.359375 12 18 12.359375 18 12.800781L18 15.199219C18 15.640625 18.359375 16 18.800781 16L21.199219 16C21.640625 16 22 15.640625 22 15.199219L22 12.800781C22 12.359375 21.640625 12 21.199219 12zM21.199219 15.199219L18.800781 15.199219 18.800781 12.800781 21.199219 12.800781zM20 1.601562C18.878906 1.601562 18 2.480469 18 3.601562 18 4.71875 18.878906 5.601562 20 5.601562 21.121094 5.601562 22 4.71875 22 3.601562 22 2.480469 21.121094 1.601562 20 1.601562zM20 4.800781C19.320312 4.800781 18.800781 4.28125 18.800781 3.601562 18.800781 2.921875 19.320312 2.398438 20 2.398438 20.679688 2.398438 21.199219 2.921875 21.199219 3.601562 21.199219 4.28125 20.679688 4.800781 20 4.800781zM10.238281 2L8.960938 2C8.640625 2 8.398438 2.238281 8.398438 2.558594L8.398438 4.640625C8.398438 4.960938 8.640625 5.199219 8.960938 5.199219L10.238281 5.199219C10.558594 5.199219 10.800781 4.960938 10.800781 4.640625L10.800781 2.558594C10.800781 2.238281 10.558594 2 10.238281 2zM10 4.398438L9.199219 4.398438 9.199219 2.800781 10 2.800781zM7.039062 2L5.761719 2C5.441406 2 5.199219 2.238281 5.199219 2.558594L5.199219 4.640625C5.199219 4.960938 5.441406 5.199219 5.761719 5.199219L7.039062 5.199219C7.359375 5.199219 7.601562 4.960938 7.601562 4.640625L7.601562 2.558594C7.601562 2.238281 7.359375 2 7.039062 2zM6.800781 4.398438L6 4.398438 6 2.800781 6.800781 2.800781zM3.839844 2L2.558594 2C2.238281 2 2 2.238281 2 2.558594L2 4.640625C2 4.960938 2.238281 5.199219 2.558594 5.199219L3.839844 5.199219C4.160156 5.199219 4.398438 4.960938 4.398438 4.640625L4.398438 2.558594C4.398438 2.238281 4.160156 2 3.839844 2zM3.601562 4.398438L2.800781 4.398438 2.800781 2.800781 3.601562 2.800781zM13.441406 2L12.160156 2C11.839844 2 11.601562 2.238281 11.601562 2.558594L11.601562 4.640625C11.601562 4.960938 11.839844 5.199219 12.160156 5.199219L13.441406 5.199219C13.761719 5.199219 14 4.960938 14 4.640625L14 2.558594C14 2.238281 13.761719 2 13.441406 2zM13.199219 4.398438L12.398438 4.398438 12.398438 2.800781 13.199219 2.800781zM16.640625 2L15.359375 2C15.039062 2 14.800781 2.238281 14.800781 2.558594L14.800781 4.640625C14.800781 4.960938 15.039062 5.199219 15.359375 5.199219L16.640625 5.199219C16.960938 5.199219 17.199219 4.960938 17.199219 4.640625L17.199219 2.558594C17.199219 2.238281 16.960938 2 16.640625 2zM16.398438 4.398438L15.601562 4.398438 15.601562 2.800781 16.398438 2.800781zM20 22.398438C21.121094 22.398438 22 21.519531 22 20.398438 22 19.28125 21.121094 18.398438 20 18.398438 18.878906 18.398438 18 19.28125 18 20.398438 18 21.519531 18.878906 22.398438 20 22.398438zM20 19.199219C20.679688 19.199219 21.199219 19.71875 21.199219 20.398438 21.199219 21.078125 20.679688 21.601562 20 21.601562 19.320312 21.601562 18.800781 21.078125 18.800781 20.398438 18.800781 19.71875 19.320312 19.199219 20 19.199219zM8.960938 22L10.238281 22C10.558594 22 10.800781 21.761719 10.800781 21.441406L10.800781 19.359375C10.800781 19.039062 10.558594 18.800781 10.238281 18.800781L8.960938 18.800781C8.640625 18.800781 8.398438 19.039062 8.398438 19.359375L8.398438 21.441406C8.398438 21.761719 8.640625 22 8.960938 22zM9.199219 19.601562L10 19.601562 10 21.199219 9.199219 21.199219zM5.761719 22L7.039062 22C7.359375 22 7.601562 21.761719 7.601562 21.441406L7.601562 19.359375C7.601562 19.039062 7.359375 18.800781 7.039062 18.800781L5.761719 18.800781C5.441406 18.800781 5.199219 19.039062 5.199219 19.359375L5.199219 21.441406C5.199219 21.761719 5.441406 22 5.761719 22zM6 19.601562L6.800781 19.601562 6.800781 21.199219 6 21.199219zM2.558594 22L3.839844 22C4.160156 22 4.398438 21.761719 4.398438 21.441406L4.398438 19.359375C4.398438 19.039062 4.160156 18.800781 3.839844 18.800781L2.558594 18.800781C2.238281 18.800781 2 19.039062 2 19.359375L2 21.441406C2 21.761719 2.238281 22 2.558594 22zM2.800781 19.601562L3.601562 19.601562 3.601562 21.199219 2.800781 21.199219zM12.160156 22L13.441406 22C13.761719 22 14 21.761719 14 21.441406L14 19.359375C14 19.039062 13.761719 18.800781 13.441406 18.800781L12.160156 18.800781C11.839844 18.800781 11.601562 19.039062 11.601562 19.359375L11.601562 21.441406C11.601562 21.761719 11.839844 22 12.160156 22zM12.398438 19.601562L13.199219 19.601562 13.199219 21.199219 12.398438 21.199219zM15.359375 22L16.640625 22C16.960938 22 17.199219 21.761719 17.199219 21.441406L17.199219 19.359375C17.199219 19.039062 16.960938 18.800781 16.640625 18.800781L15.359375 18.800781C15.039062 18.800781 14.800781 19.039062 14.800781 19.359375L14.800781 21.441406C14.800781 21.761719 15.039062 22 15.359375 22zM15.601562 19.601562L16.398438 19.601562 16.398438 21.199219 15.601562 21.199219zM15.601562 19.601562"/>
    <path d="M 14 13.601562 L 10 13.601562 C 9.761719 13.601562 9.601562 13.761719 9.601562 14 C 9.601562 14.238281 9.761719 14.398438 10 14.398438 L 14 14.398438 C 14.238281 14.398438 14.398438 14.238281 14.398438 14 C 14.398438 13.761719 14.238281 13.601562 14 13.601562 Z M 14 13.601562"/>
</svg>

<svg xmlns="http://www.w3.org/2000/svg" width="32" height="32" viewBox="0 0 24 24">
    <path d="M22.96 0H1.04C.48 0 0 .48 0 1.04v21.92C0 23.52.48 24 1.04 24h21.92c.56 0 1.04-.48 1.04-1.04V1.04C24 .48 23.52 0 22.96 0zm.24 22.96c0 .118-.122.24-.24.24H1.04c-.118 0-.24-.122-.24-.24v-5.358h22.4zm0-6.16H.8V7.2h22.4zM.8 6.399V1.04c0-.117.122-.238.24-.238h21.92c.118 0 .24.12.24.238V6.4zm0 0"/>
    <path d="M16.8 10.398c-.241 0-.402.16-.402.403 0 .238.16.398.403.398.238 0 .398-.16.398-.398 0-.242-.16-.403-.398-.403zm0 0M18.398 11.2c.243 0 .403-.16.403-.4 0-.241-.16-.402-.403-.402-.238 0-.398.16-.398.403 0 .238.16.398.398.398zm0 0M13.602 11.2c.238 0 .398-.16.398-.4 0-.241-.16-.402-.398-.402-.243 0-.403.16-.403.403 0 .238.16.398.403.398zm0 0M15.2 11.2c.241 0 .402-.16.402-.4 0-.241-.16-.402-.403-.402-.238 0-.398.16-.398.403 0 .238.16.398.398.398zm0 0M10.398 11.2c.243 0 .403-.16.403-.4 0-.241-.16-.402-.403-.402-.238 0-.398.16-.398.403 0 .238.16.398.398.398zm0 0M12 11.2c.238 0 .398-.16.398-.4 0-.241-.16-.402-.398-.402-.238 0-.398.16-.398.403 0 .238.16.398.398.398zm0 0M8.398 10.8c0 .24.16.4.403.4.238 0 .398-.16.398-.4 0-.241-.16-.402-.398-.402-.242 0-.403.16-.403.403zm0 0M20 11.2c.238 0 .398-.16.398-.4 0-.241-.16-.402-.398-.402-.238 0-.398.16-.398.403 0 .238.16.398.398.398zm0 0M21.602 10.398c-.243 0-.403.16-.403.403 0 .238.16.398.403.398.238 0 .398-.16.398-.398 0-.242-.16-.403-.398-.403zm0 0M17.602 9.2c-.243 0-.403.16-.403.402 0 .238.16.398.403.398.238 0 .398-.16.398-.398 0-.243-.16-.403-.398-.403zm0 0M19.2 9.2c-.24 0-.4.16-.4.402 0 .238.16.398.4.398.241 0 .402-.16.402-.398 0-.243-.16-.403-.403-.403zm0 0M14.398 9.2c-.238 0-.398.16-.398.402 0 .238.16.398.398.398.243 0 .403-.16.403-.398 0-.243-.16-.403-.403-.403zm0 0M16 9.2c-.238 0-.398.16-.398.402 0 .238.16.398.398.398.238 0 .398-.16.398-.398 0-.243-.16-.403-.398-.403zm0 0M11.2 9.2c-.24 0-.4.16-.4.402 0 .238.16.398.4.398.241 0 .402-.16.402-.398 0-.243-.16-.403-.403-.403zm0 0M12.8 9.2c-.241 0-.402.16-.402.402 0 .238.16.398.403.398.238 0 .398-.16.398-.398 0-.243-.16-.403-.398-.403zm0 0M9.602 9.2c-.243 0-.403.16-.403.402 0 .238.16.398.403.398.238 0 .398-.16.398-.398 0-.243-.16-.403-.398-.403zm0 0M21.2 9.602c0-.243-.16-.403-.4-.403-.241 0-.402.16-.402.403 0 .238.16.398.403.398.238 0 .398-.16.398-.398zm0 0M8.398 8.8H22c.238 0 .398-.16.398-.402 0-.238-.16-.398-.398-.398H8.398C8.16 8 8 8.16 8 8.398c0 .243.16.403.398.403zm0 0M2 11.2h4.8c.24 0 .4-.16.4-.4V8.399C7.2 8.16 7.04 8 6.8 8H2c-.238 0-.398.16-.398.398v2.403c0 .238.16.398.398.398zm.398-2.4h4v1.598h-4zm0 0M5.2 12H2.8c-.44 0-.8.36-.8.8v2.4c0 .44.36.8.8.8h2.4c.44 0 .8-.36.8-.8v-2.4c0-.44-.36-.8-.8-.8zm0 3.2H2.8v-2.4h2.4zm0 0M7.2 15.2c0 .44.359.8.8.8h8c.441 0 .8-.36.8-.8v-2.4c0-.44-.359-.8-.8-.8H8c-.441 0-.8.36-.8.8zm.8-2.4h8v2.4H8zm0 0M21.2 12h-2.4c-.44 0-.8.36-.8.8v2.4c0 .44.36.8.8.8h2.4c.44 0 .8-.36.8-.8v-2.4c0-.44-.36-.8-.8-.8zm0 3.2h-2.4v-2.4h2.4zm0 0M20 1.602c-1.121 0-2 .878-2 2 0 1.117.879 2 2 2s2-.883 2-2c0-1.122-.879-2-2-2zM20 4.8c-.68 0-1.2-.52-1.2-1.2 0-.68.52-1.203 1.2-1.203.68 0 1.2.524 1.2 1.204 0 .68-.52 1.199-1.2 1.199zm0 0M10.238 2H8.961a.547.547 0 0 0-.563.559V4.64c0 .32.243.558.563.558h1.277c.32 0 .563-.238.563-.558V2.559A.547.547 0 0 0 10.238 2zM10 4.398h-.8V2.801h.8zm0 0M7.04 2H5.761a.547.547 0 0 0-.563.559V4.64c0 .32.242.558.563.558h1.277c.32 0 .563-.238.563-.558V2.559A.547.547 0 0 0 7.039 2zM6.8 4.398H6V2.801h.8zm0 0M3.84 2H2.559A.544.544 0 0 0 2 2.559V4.64c0 .32.238.558.559.558h1.28c.321 0 .56-.238.56-.558V2.559A.544.544 0 0 0 3.838 2zm-.238 2.398H2.8V2.801h.8zm0 0M13.441 2h-1.28a.544.544 0 0 0-.56.559V4.64c0 .32.239.558.56.558h1.28c.32 0 .559-.238.559-.558V2.559A.544.544 0 0 0 13.441 2zM13.2 4.398h-.8V2.801h.8zm0 0M16.64 2h-1.28a.544.544 0 0 0-.56.559V4.64c0 .32.24.558.56.558h1.28c.32 0 .56-.238.56-.558V2.559A.544.544 0 0 0 16.64 2zm-.242 2.398h-.796V2.801h.796zm0 0M20 22.398c1.121 0 2-.878 2-2 0-1.117-.879-2-2-2s-2 .883-2 2c0 1.122.879 2 2 2zm0-3.199c.68 0 1.2.52 1.2 1.2 0 .68-.52 1.203-1.2 1.203-.68 0-1.2-.524-1.2-1.204 0-.68.52-1.199 1.2-1.199zm0 0M8.96 22h1.278c.32 0 .563-.238.563-.559V19.36a.547.547 0 0 0-.563-.558H8.961a.547.547 0 0 0-.563.558v2.082c0 .32.243.559.563.559zm.24-2.398h.8v1.597h-.8zm0 0M5.762 22h1.277c.32 0 .563-.238.563-.559V19.36a.547.547 0 0 0-.563-.558H5.762a.547.547 0 0 0-.563.558v2.082c0 .32.242.559.563.559zM6 19.602h.8v1.597H6zm0 0M2.559 22h1.28c.321 0 .56-.238.56-.559V19.36a.544.544 0 0 0-.56-.558H2.56a.544.544 0 0 0-.559.558v2.082c0 .32.238.559.559.559zm.242-2.398h.8v1.597h-.8zm0 0M12.16 22h1.281c.32 0 .559-.238.559-.559V19.36a.544.544 0 0 0-.559-.558h-1.28a.544.544 0 0 0-.56.558v2.082c0 .32.239.559.56.559zm.238-2.398h.801v1.597h-.8zm0 0M15.36 22h1.28c.32 0 .56-.238.56-.559V19.36a.544.544 0 0 0-.56-.558h-1.28a.544.544 0 0 0-.56.558v2.082c0 .32.24.559.56.559zm.242-2.398h.796v1.597h-.796zm0 0"/>
    <path d="M14 13.602h-4c-.238 0-.398.16-.398.398 0 .238.16.398.398.398h4c.238 0 .398-.16.398-.398 0-.238-.16-.398-.398-.398zm0 0"/>
</svg>
